X:12863
T:Pastor que tas nel monte (CT 404)
R:Tonada
C:Tradicional Versin 2
S:Msica Tradicional Asturiana, (C) Tello & Tito. Asturies, 2001.
S:http://pagina.de/MusTradAst <telloytito@asturies.org>
N:Variante de CT 403, CT 405, CT 406,  CT 407, CT 408, dictada por Leandra Gonzlez Zuazua, de cincuenta aos, quien dice la aprendi de unas pastoras en Proaza.
O:Proaza
A:Asturies
Z:Cancioneru de Torner 404
M:3/8
L:1/8
Q:1/8=132
W:Pastor que ests en el monte,
W:pastor,
W:y duermes entre la rama:
W:si te casaras conmigo,
W:pastor,
W:durmieras en buena cama.
W:Y anda y anda!
W:
W:Soy nacidu en la cabaa,
W:s, s,
W:y pastora fue mio madre;
W:morrera yo en ellano,
W:s, s,
W:que me faltara el aire.
W:Y anda y anda!
W:
W:Pastor que ests en el monte
W:descalzu triando brees:
W:si te casaraas conmigo,
W:calzars bones madrees.
W:
W:Salto y brinco por el monte
W:descalzu y triando espinos,
W:meyor que en esos llugares
W:con madrees y escarpinos.
W:
W:Pastor que ests en el monte
W:comiendo pan de centeno:
W:si te casarras conmigo,
W:comieras del trigo bueno.
W:
W:Comiendo pan de centeno,
W:descalzu y durmiendo en rama,
W:tengo yo en estes altures
W:la tranquilid del alma.
W:
W:Yo subir a la montaa
W:y pastora me far
W:dormir en la to cabaa
W:y el rebau cudiar.
K:Cm
G|:cc=B|c2=B|c=Bc|dec|d2B|
AG2-|Gzd|dec|d2B|AGG|F2A|
BGA|B2c|dde|c2(B/2(3c/4B/4A/4)|G3-|[1 GzG:|[2Gz2|
